X:192
T:I'm O'er Young to Marry Yet
B:Popular Songs and Melodies of Scotland (Glasgow 1893)
N:Transposed from D for comparison
Z:Nigel Gatherer
M:4/4
L:1/8
K:G
e|d<GG>A BAB>c|d<GG>A B<AAe|d<GG>A BAB>d|e>fg>e d<AA|]
d|e>fg<e dBb>a|g>fge d<BBd|e>fg<e dBb>a|g>fge dBA|]
<end>
<start>
